Newaita-dark/actions/16/mail-mark-read.svg

<svg height="16" viewBox="0 0 16 16" width="16" xmlns="http://www.w3.org/2000/svg"><g fill="#e0e0e0"><path d="m1.324219 6.078125v5.953125c0 .734375.589843 1.324219 1.320312 1.324219h10.585938c.734375 0 1.324219-.589844 1.324219-1.324219v-5.953125h-1.324219v5.292969c0 .367187-.296875.660156-.660157.660156h-9.261718c-.367188 0-.664063-.292969-.664063-.660156v-5.292969zm0 0"/><path d="m7.949219 2.773438c-.09375 0-.191407.019531-.277344.058593l-5.953125 2.644531c-.21875.09375-.371094.296876-.398438.535157-.027343.234375.078126.464843.269532.605469.195312.140624.445312.164062.664062.0625l5.683594-2.527344 5.6875 2.527344c.214844.101562.46875.078124.660156-.0625.195313-.140626.296875-.371094.269532-.605469-.023438-.238281-.175782-.441407-.394532-.535157l-5.953125-2.644531c-.082031-.035156-.167969-.054687-.257812-.058593zm0 0"/><path d="m1.996094 5.417969c-.316406-.011719-.59375.207031-.664063.515625-.066406.308594.09375.621094.386719.746094l5.953125 2.648437c.167969.074219.363281.074219.535156 0l5.953125-2.648437c.21875-.09375.371094-.296876.394532-.53125.027343-.238282-.074219-.46875-.269532-.609376-.191406-.136718-.445312-.160156-.660156-.0625l-5.6875 2.527344-5.683594-2.527344c-.082031-.035156-.167968-.058593-.257812-.058593zm0 0"/></g></svg>

<svg xmlns="http://www.w3.org/2000/svg" xmlns:xlink="http://www.w3.org/1999/xlink" width="16px" height="16px" viewBox="0 0 16 16" version="1.1">
<g id="surface1">
     <defs>
  <style id="current-color-scheme" type="text/css">
   .ColorScheme-Text { color:#eeeeee; } .ColorScheme-Highlight { color:#424242; }
  </style>
 </defs>
<path style="fill:currentColor" class="ColorScheme-Text" d="M 1.324219 6.078125 L 1.324219 12.03125 C 1.324219 12.765625 1.914062 13.355469 2.644531 13.355469 L 13.230469 13.355469 C 13.964844 13.355469 14.554688 12.765625 14.554688 12.03125 L 14.554688 6.078125 L 13.230469 6.078125 L 13.230469 11.371094 C 13.230469 11.738281 12.933594 12.03125 12.570312 12.03125 L 3.308594 12.03125 C 2.941406 12.03125 2.644531 11.738281 2.644531 11.371094 L 2.644531 6.078125 Z M 1.324219 6.078125 "/>
     <defs>
  <style id="current-color-scheme" type="text/css">
   .ColorScheme-Text { color:#eeeeee; } .ColorScheme-Highlight { color:#424242; }
  </style>
 </defs>
<path style="fill:currentColor" class="ColorScheme-Text" d="M 7.949219 2.773438 C 7.855469 2.773438 7.757812 2.792969 7.671875 2.832031 L 1.71875 5.476562 C 1.5 5.570312 1.347656 5.773438 1.320312 6.011719 C 1.292969 6.246094 1.398438 6.476562 1.589844 6.617188 C 1.785156 6.757812 2.035156 6.78125 2.253906 6.679688 L 7.9375 4.152344 L 13.625 6.679688 C 13.839844 6.78125 14.09375 6.757812 14.285156 6.617188 C 14.480469 6.476562 14.582031 6.246094 14.554688 6.011719 C 14.53125 5.773438 14.378906 5.570312 14.160156 5.476562 L 8.207031 2.832031 C 8.125 2.796875 8.039062 2.777344 7.949219 2.773438 Z M 7.949219 2.773438 "/>
     <defs>
  <style id="current-color-scheme" type="text/css">
   .ColorScheme-Text { color:#eeeeee; } .ColorScheme-Highlight { color:#424242; }
  </style>
 </defs>
<path style="fill:currentColor" class="ColorScheme-Text" d="M 1.996094 5.417969 C 1.679688 5.40625 1.402344 5.625 1.332031 5.933594 C 1.265625 6.242188 1.425781 6.554688 1.71875 6.679688 L 7.671875 9.328125 C 7.839844 9.402344 8.035156 9.402344 8.207031 9.328125 L 14.160156 6.679688 C 14.378906 6.585938 14.53125 6.382812 14.554688 6.148438 C 14.582031 5.910156 14.480469 5.679688 14.285156 5.539062 C 14.09375 5.402344 13.839844 5.378906 13.625 5.476562 L 7.9375 8.003906 L 2.253906 5.476562 C 2.171875 5.441406 2.085938 5.417969 1.996094 5.417969 Z M 1.996094 5.417969 "/>
</g>
</svg>
